X:8319
T:Julia,1st part. JNu.16
M:3/8
L:1/8
Q:50
S:James Nuttall MS,c1830,Rossendale,East Lancs.
R:Misc.
O:England
A:East Lancashire
Z:vmp.Manchester Morris Men
K:A
|:"primo"a3|ecA|dBG|A2E|a3|ecA|dBG|A3::!
Edd|Ecc|EBB|cde|Edd|Ecc|EBB|A3:|]
